!!!!SEGMENT: 038-1-BH.krn
!!!COM: Chopin, Fryderyk
!!!OTL: BALLADE
!!!OPS: Op. 38
!!!PTL: BALLADE | pour le Piano | dediée | A Monsieur Robert Schumann | PAR | FRÉD. CHOPIN.
!!!PPR: Breitkopf & Härtel
!!!PPP: Leipzig
!!!NIFC-rismID: 1001006241
!!!NIFC-shelfmark: PL-Wbfc 2668/n
!!!OMD: Andantino.
**kern	**kern	**dynam
*part1	*part1	*part1
*I"BALLADE.	*I"BALLADE.	*
*staff2	*staff1	*
*clefF4	*clefG2	*
*k[b-]	*k[b-]	*
*F:	*F:	*
*M6/8	*M6/8	*
*ped	*	*
!	!LO:TX:i:t=sotto voce.	!
(<8c	(>\8cc	.
4c	4cc	.
8c	8cc	.
=1	=1	=1
4c	4cc	.
8c	8cc	.
4c	4cc	.
8c	8cc	.
=2	=2	=2
4c 4F	4cc 4a	.
8c 8F	8cc 8a	.
*Xped	*	*
.	.	.
4c 4F	4cc 4b-	.
8c 8F	8cc 8b-	.
=3	=3	=3
*	*^	*
4c 4F	8.eeL	4b-	.
.	16ddK	.	.
8c 8F	8ccJ	8b-	.
4c 4F	4.rgggyy	4ff 4a	.
8B-	.	8dd/ 8f/	.
*	*v	*v	*
=4	=4	=4
4A	4cc 4f	.
8A 8C	8a 8e	.
4A 4D	4f 4c	.
8D 8GG	8g 8f 8B-	.
=5	=5	=5
*	*^	*
4C	4.g	4e 4B-	.
8C	.	8d 8B-	.
4F 4FF	4a 4c	4.rFyy	.
8F/ 8BB-/	8b-) 8d	.	.
*	*v	*v	*
=6	=6	=6
4F\ 4C\	(>4a 4c	.
8F\ 8BB-\	8f 8d	.
4F 4C	4a 4c	.
8F 8D	8b- 8B-	.
!!LO:LB:g=original
=7	=7	=7
*	*^	*
4F 4C	8.aL	4c	.
.	16gK	.	.
8F 8BB-	8fJ	8d	.
4F 4C	4a 4c	4.ryy	.
8F 8D	8b- 8B-	.	.
=8	=8	=8	=8
4F 4C	8.aL	4c	.
.	16gK	.	.
8A 8C	8fJ	8c	.
4B- 4C	4.g	4d	.
8B- 8C	.	8e 8c	.
=9	=9	=9	=9
4A 4F	4.f)	4c	.
8A 8F	.	8c	.
4c 4F	(>[>4.cc	4a 4f	.
8c 8F	.	[<8a [<8f	.
=10	=10	=10	=10
4c 4F	4cc]	4a] 4f]	.
8c 8F	8cc 8a 8f	8rAyy	.
4c 4F	4cc 4b- 4g	4.rAyy	.
8c 8F	8cc 8b- 8g	.	.
=11	=11	=11	=11
4c 4F	8.eeL	4b- 4g	.
.	16ddK	.	.
8c 8F	8ccJ	8b- 8g	.
4c 4F	4ff\ 4a\ 4f\	4.rcyy	.
8B-	8dd 8f	.	.
*	*v	*v	*
=12	=12	=12
4A	4cc 4f	.
8A 8C	8a 8e	.
4A 4D	4f 4c	.
8D 8GG	8g 8f 8B-	.
=13	=13	=13
*	*^	*
4C	4.g	4e 4B-	.
8C	.	8d 8B-	.
4F 4FF	4a 4c	4.rAyy	.
8F/ 8BB-/	8b- 8d	.	.
*	*v	*v	*
=14	=14	=14
4F 4C	4a 4c	.
8F 8BB-	8f 8d	.
4F 4C	4a 4c	.
8F 8D	8b- 8B-	.
!!LO:LB:g=original
=15	=15	=15
*	*^	*
4F 4C	8.aL	4c	.
.	16gK	.	.
8F 8BB-	8fJ	8d	.
4F 4C	4a 4c	4.rFyy	.
8F 8D	8b- 8B-	.	.
=16	=16	=16	=16
4F 4C	8.aL	4c	.
.	16gK	.	.
8A 8C	8fJ	8c	.
4B- 4C	4.g	4d	.
8B- 8C	.	8e 8c	.
=17	=17	=17	=17
4A 4F	4.f	4c	>
8A 8F	.	8c	.
4A 4C	4.cc	4e	.
8A 8C	.	[<8e	.
*	*v	*v	*
=18	=18	=18
4A 4C	4cc 4e]	.
8D	8bn 8f 8d	.
.	8qbn/	.
!	!LO:TX:t=P:arpeggio obejmuje także przednutkę:problem	!
4E	4a: 4e: 4c:	.
8E 8EE	8g#X 8e 8Bn	]
=19	=19	=19
4E 4AA	4a 4e 4c	<
8A 8AA	8cc 8e 8c	.
4G 4C	4ee 4g 4e	.
8c 8G 8C	8ee 8g 8e	[[
=20	=20	=20
4c 4E	4ee 4g	>
8F	8dd\ 8a 8f	.
.	8qdd/	.
4G	4cc: 4g: 4e:	.
8G 8GG	8bn 8g 8d	]
=21	=21	=21
*	*^	*
4G 4C	4.cc	4g 4e	.
8G 8C	.	8e	.
4c 4C	4.rgggyy	4ee 4g	pp
8c 8F	.	8ff 8a	.
*	*v	*v	*
=22	=22	=22
4c 4G	4ee 4g	.
8c 8F	8cc 8a	.
4c 4G	4ee 4g	.
8c 8A	8ff 8f	.
!!LO:LB:g=original
=23	=23	=23
*	*^	*
4c 4G	8.eeL	4g	.
.	16ddK	.	.
8c 8F	8ccJ	8a	.
4c 4G	4.rbbbyy	4ee 4g	.
8c 8A	.	8ff 8f	.
=24	=24	=24	=24
4c 4G	8.eeL	4g	.
.	16ddK	.	.
8e 8G	8ccJ	8g	.
4f 4G	4.dd	4a	.
8G	.	8bn 8g 8f	.
=25	=25	=25	=25
4C	4.cc 4.g	4e	.
8C	.	8e	>
4D	4.b-X	4f 4d	.
8E	.	8g 8d-X	.
*	*v	*v	*
=26	=26	=26
4c 4F	4a 4g	]
8c 8F	8cc 8a 8f	.
4c 4F	4cc/ 4a/	.
8c 8F	8cc/ 8a/	.
=27	=27	=27
*	*^	*
4c 4F	8.eeL	4.b-	.
.	16ddK	.	.
8c 8F	8ccJ	.	.
4c 4F	4.reeeyy	4ff 4a	.
8B-	.	8dd/ 8f/	.
*	*v	*v	*
=28	=28	=28
4A	4cc 4f	.
8A 8C	8a 8e	.
4A 4D	4f 4c	.
8D 8GG	8g 8f 8B-	.
=29	=29	=29
*	*^	*
4C	4.g	4e 4B-	.
8C	.	8d 8B-	.
4F 4FF	4a 4c	4.rFyy	.
8F/ 8BB-/	8b- 8d	.	.
*	*v	*v	*
=30	=30	=30
4F 4C	4a 4c	.
8F 8BB-	8f 8d	.
4F 4C	4a 4c	.
8F 8D	8b- 8B-	.
!!LO:LB:g=original
=31	=31	=31
*	*^	*
4F 4C	8.aL	4c	.
.	16gK	.	.
8F 8BB-	8fJ	8d	.
4F 4C	4a 4c	4.rFyy	.
8F 8D	8b- 8B-	.	.
=32	=32	=32	=32
4F 4C	8.aL	4c	.
.	16gK	.	.
8A 8C	8fJ	8c	<
4B- 4C	4g 4d	4r.yy	.
8B- 8C	8e 8c	.	[[
=33	=33	=33	=33
4A 4C	[>4.cc	4e	>
8A 8C	.	8e	.
4A 4C	4cc]	4e	.
8A 8D	8a	8f	]
*	*v	*v	*
=34	=34	=34
4A 4E	4cc 4e	.
8A 8D	8a 8f	.
4A 4E	4cc 4e	.
8A 8F	8dd 8d	.
=35	=35	=35
*	*^	*
4A 4E	8.ccL	4e	.
.	16bnK	.	.
8A 8D	8aJ	8f	.
4A 4E	4cc 4e	4.rFyy	.
8A 8F	8dd 8d	.	.
=36	=36	=36	=36
4A 4E	8.ccL	4e	.
.	16bnK	.	.
8c 8E	8aJ	8e	.
4E	4.b	4a 4e 4d	.
8E	.	8g#X 8d	.
=37	=37	=37	=37
4AA	4.a	4c	.
8AA)	.	8e 8c	.
(<4FF#X/	4.cc 4.a	4e-X	>
8FF#	.	8e-)	.
=38	=38	=38	=38
8.GGL	(>8.b-L 8.g 8.d	4.rAyy	.
16AAK	16aK 16f#X 16c	.	]]
8BB-J	8gJ 8d	.	.
!	!	!	!LO:HP:a
4C	4.a	4enX 4B-	>
8C 8CC	.	8e 8B-	]]
!!LO:LB:g=original
=39	=39	=39	=39
4C 4FF	4.f	4A	.
8FF	.	8A	.
4FF#X	4.cc) 4.a	4e-X	>
8FF#	.	8e-	.
=40	=40	=40	=40
.	8qcc/	.	.
8.GGL	(>8.b-:L 8.g: 8.d:	4.rFyy	.
16AAK	16aK 16f#X 16c	.	.
8BB-J	8gJ 8d	.	]
!	!	!	!LO:HP:a
4C	4.a^>	4e 4B-	.
8C) 8CC	.	8e 8B-	.
=41	=41	=41	=41
*^	*	*	*
4.C	(<8.FFL	4.f	4A	.
.	16EEK	.	.	.
.	8DDJ	.	8A	.
!	!	!	!	!LO:HP:a
4.C	4CC	4.a^>	4e 4B-	.
.	8CC	.	8e 8B-	.
=42	=42	=42	=42	=42
4C	8.FFL	4.f	4A	.
.	16EEK	.	.	.
8C	8DDJ	.	8A	.
!	!	!	!	!LO:HP:a
4.C	4CC	4.a	4e 4B-	.
.	8CC)	.	8e 8B-	.
*v	*v	*	*	*
*	*v	*v	*
=43	=43	=43
!	!LO:TX:i:t=smorzando. _:dur=15e:ext=ud:problem:text with extension lines	!
(<4C\ 4FF\	4f 4A<	.
8C\ 8CC\	8a 8e 8B-<	.
4C\ 4FF\	4f 4A<	.
8C\ 8CC\	8a 8e 8B-<	.
=44	=44	=44
4C\ 4FF\	4f 4A<	.
8C\ 8CC\	8a 8e 8B-<	.
4C\ 4FF\	4f 4A<	.
8C\ 8CC\	8a 8e 8B-<	.
*ped	*	*
=45	=45	=45
!LO:TX:t=P:4qqFFF i 8qqFFF jako jedna nuta:problem	!	!
4qqFFF<\	.	.
8qqFFF/L	.	.
[<8qqFF/	.	.
[<8qqC/	.	.
[<8qqF/J	.	.
!LO:N:vis=2.	!LO:N:vis=2.	!
4.F\]) 4.C\] 4.FF\]	4.ryy	.
[>8qqA/L	.	.
[<8qqc>/	.	.
[<8qqf>/J	.	.
*	*rscale:4	*
!LO:N:vis=2.	!	!
!LO:TX:t=P:złe wyświetlanie fermaty:problem	!	!
4.f>] 4.c>] 4.A;]	16aLL	.
.	16a	.
.	16a	.
!	!LO:TX:a:t=3	!
.	16a	.
.	16a	.
*Xped	*	*
.	16a;JJ)	.
*	*rscale:1	*
!!LO:PB:g=original
=46	=46	=46
*ped	*	*
*	*8va	*
!	!LO:TX:B:a:t=Presto con fuoco.	!
!	!	!LO:DY:rj
8AAL 8AAA	(>16aaaLL 16fff	ff
.	16eee	>
8E 8EE	16ccc	.
.	16aa	.
*	*X8va	*
!	!LO:TX:a:t=loco.	!
!	!LO:TX:a:t=P:"loco" powinno być poniżej "fuoco":problem	!
8BnJ 8BBn	16aa 16ff	.
.	16eeJJ	.
4c 4C	16ccLL	.
.	16a	]
.	16a 16f	.
.	16e	.
8r	16c	.
*Xped	*	*
.	16AJJ)	.
=47	=47	=47
*ped	*	*
(>16FLL	(>16G#XLL	.
16D	16g#X 16Bn	<
16AA	16B	.
16G#	16bn 16d	.
16F	16d	.
16AAJJ	16ddJJ 16f	.
16BnLL	16fLL	.
16F	16ff 16g#	.
16AA	16g#	.
16dJJ)	16gg# 16b	.
8r	16b	.
*Xped	*	*
.	16bbnJJ 16dd)	[
=48	=48	=48
*ped	*	*
*	*8va	*
8AAL 8AAA	(>16aaaLL 16fff	>
.	16eee	.
8E 8EE	16ccc	.
.	16aa	.
*	*X8va	*
!	!LO:TX:a:t=loco.	!
8BnJ 8BBn	16aa 16ff	.
.	16eeJJ	.
4c 4C	16ccLL	.
.	16a	.
.	16a 16f	.
.	16e	.
8r	16c	]
*Xped	*	*
.	16AJJ)	.
=49	=49	=49
*ped	*	*
(>16G#XLL	(>16BnLL	.
16F	16bn 16d	.
16AA	16d	.
16Bn	16dd 16f	.
16F	16f	.
16AAJJ	16ffJJ 16g#X	.
16dLL	16g#LL	.
16F	16gg#X 16bn	.
16AA	16b	.
16fJJ)	16bbn 16dd	.
8r	16dd	.
*Xped	*	*
.	16dddJJ 16ff)	.
!!LO:LB:g=original
=50	=50	=50
*	*8va	*
(>8AAL 8AAA	(>16eeeeLL 16aaa	.
.	16cccc	.
!	!	!LO:HP:b=2
8E 8EE	16aaa	<
.	16eee	.
8G#XJ 8GG#X	16cccc 16eee	.
.	16aaaJJ	.
8BnL 8BBn	16eeeLL	.
.	16ccc	.
8A 8AA	16aaa 16ccc	.
.	16eee	.
8BJ 8BB	16ccc	.
.	16aaJJ	.
*	*X8va	*
=51	=51	=51
!	!LO:TX:a:t=loco.	!
8dL 8D	16eeeLL 16aa	.
.	16ccc	.
8c 8C	16aa	.
.	16ee	.
8d#XJ 8D#X	16ccc 16ee	.
.	16aaJJ	.
8fL 8F	16eeLL	.
.	16cc	.
8eJ 8E)	16aa 16cc	[
.	16ee	.
8r	16cc	.
.	16aJJ	.
=52	=52	=52
!	!	!LO:HP:b=2
(<8AAL 8AAA	16ff#XLL\ 16cc	<
.	16ee	.
8C 8CC	16cc	.
.	16f#	.
8DJ 8DD	16cc 16f#	.
.	16aJJ	.
[<4.E-X [<4.EE-X	16f#LL	.
.	16c	.
.	16a 16c	.
.	16f#	.
.	16c	.
.	16A<JJ	[
=53	=53	=53
!	!	!LO:HP:b=2
4E-X\] 4EE-X\]	16f#XLL 16A<	>
.	16c	.
.	16A<	.
.	16F#<	.
8D\ 8DD\	16f# 16d	.
.	16F#<JJ	.
8AA\L 8AAA\	16f#LL 16e-X	.
.	16F#<	.
8BB- 8BBB-	16f# 16d	.
.	16F#<	.
8AAJ 8AAA)	16f# 16d 16c	]
.	16F#<JJ)	.
!!LO:LB:g=original
=54	=54	=54
*	*8va	*
8GGL 8GGG	(>16gggLL 16eee-X	>
.	16ddd	.
8D 8DD	16bb-	.
.	16gg	.
*	*X8va	*
!	!LO:TX:a:t=loco.	!
8AJ 8AA	16gg 16ee-X	.
.	16ddJJ	.
4B- 4BB-	16b-LL	.
.	16g	.
.	16g 16e-	.
.	16d	.
8r	16B-	]
.	16GJJ)	.
=55	=55	=55
(>16E-XLL<	(>16F#<XLL	.
16C	16f#X 16A<	.
16GG	16A<	>
16F#y	16a 16c	.
16E-	16c	.
16GGJJ	16ccJJ 16e-X	.
16ALL	16e-LL\	.
16E-	16ee- 16f#X	.
16GG	16f#	.
16cJJ)	16ff#X 16a	.
8r	16a	]
.	16aaJJ 16cc)	.
=56	=56	=56
*	*8va	*
8GGL 8GGG	(>16gggLL 16eee-X	>
.	16ddd	.
8D 8DD	16bb-	.
.	16gg	.
*	*X8va	*
!	!LO:TX:a:t=loco.	!
8AJ 8AA	16gg 16ee-X	.
.	16ddJJ	.
4B- 4BB-	16b-LL	.
.	16g	.
.	16g 16e-	.
.	16d	.
8r	16B-	]
.	16GJJ)	.
=57	=57	=57
(>16F#XLL	(>16ALL	.
16E-X	16a 16c	<
16GG	16c	.
16A	16cc 16e-X	.
16E-	16e-	.
16GGJJ	16ee-JJ 16f#X	.
16cLL	16f#LL	.
16E-	16ff# 16a	.
16GG	16a	.
16e-yJJ)	16aa 16cc	.
8r	16cc	.
.	16cccJJ 16ee-)	[
!!LO:LB:g=original
=58	=58	=58
*	*8va	*
(>8GGL 8GGG	(>16ddddLL 16ggg	.
.	16bbb-	.
8D 8DD	16ggg	.
.	16ddd	.
8F#XJ 8FF#X	16bbb- 16ddd	.
.	16gggJJ	.
8AL 8AA	16dddLL	.
.	16bb-	.
8G 8GG	16ggg 16bb-	.
.	16ddd	.
8AJ 8AA	16bb-	.
.	16ggJJ	.
*	*X8va	*
=59	=59	=59
!	!LO:TX:a:t=loco.	!
8cL 8C	16dddLL 16gg	.
.	16bb-	.
8B- 8BB-	16gg	.
.	16dd	.
8c#XJ 8C#X	16bb- 16dd	.
.	16ggJJ	.
8e-XL 8E-X	16ddLL	.
.	16b-	.
8dJ 8D)	16gg 16b-	.
.	16dd	.
8r	16b-	.
.	16gJJ	.
=60	=60	=60
*ped	*	*
(<8EEnL 8EEEn	16ddLL 16g	.
.	16b-	.
8GG 8GGG	16g	.
.	16d	.
8AAJ 8AAA	16b- 16d	.
.	16gJJ	.
4.BB- 4.BBB-)	16dLL	.
.	16B-	.
.	16g 16d	.
.	16e	.
.	16d	.
*Xped	*	*
.	16GJJ	.
=61	=61	=61
*ped	*	*
(<8EEnL 8EEEn	16b-LL 16d	.
.	16g	.
8GG 8GGG	16d	.
.	16B-	.
8AAJ 8AAA	16g 16d	.
.	16eJJ	.
4.BB- 4.BBB-)	16dLL	.
.	16G	.
.	16g 16d	.
.	16e	.
.	16d	.
*Xped	*	*
.	16GJJ)	.
!!LO:LB:g=original
=62	=62	=62
*	*	*^
*ped	*	*	*
(<8AAL< 8AAA	4.a 4.e 4.c#X< 4.A< 4.G<)	>	.
16GG#XL	.	.	.
!	!	!	!LO:HP:a
!	!	!	!LO:HP:a:i:t=cre-scen-do.:ext=cd
!	!LO:TX:a:i:t=cre-scen-do.:problem:dynamics with line extensions	!	!
16AA	.	]	<
16BBn	.	.	.
16C#XJJ	.	.	.
*Xped	*	*	*
.	.	.	.
16DLL	8.aL 8.f 8.d 8.A<	.	.
16E	.	.	.
16F	.	.	.
16E	16aK 16A<	.	.
16D	8aJ 8A<	.	.
16BB-XJJ	.	[	.
=63	=63	=63	=63
*ped	*	*	*
8AA 8AAAL<	4.a 4.e 4.c#X< 4.A< 4.G<	.	>
16GG#XL	.	.	.
16AA	.	.	]
16BBn	.	.	.
16C#XJJ	.	.	.
*Xped	*	*	*
.	.	.	.
16DLL	4a 4f 4d 4A<	<	.
16E	.	.	.
16F	.	.	.
16E	.	.	.
16D	8bn 8g 8f 8Bn<	.	.
16D-XJJ)	.	[	.
=64	=64	=64	=64
*ped	*	*	*
(>8CL 8CC	4.cc 4.b-y 4.g 4.en 4.c	.	>
16BBnL	.	.	.
16C	.	.	]
16D	.	.	.
16EJJ	.	.	.
*Xped	*	*	*
.	.	.	.
16FLL	8.ccL 8.a-X 8.f 8.c	.	.
16G	.	.	.
16A-X	.	.	.
16G	16ccK 16c	.	.
16F	8ccJ 8c	.	.
16D-XJJ)	.	.	.
=65	=65	=65	=65
*ped	*	*	*
(>8CL 8CC	4.cc 4.b- 4.g 4.e 4.c	>	.
16BBnL	.	.	.
16C	.	.	.
16D	.	.	.
16EJJ	.	]	.
*Xped	*	*	*
.	.	.	.
16FLL	4cc 4a 4f- 4c	<	.
16G	.	.	.
16A-X	.	.	.
16G	.	.	.
16F	8dd 8b- 8a-y 8d	.	.
16F-XJJ)	.	[	.
!!LO:PB:g=original
=66	=66	=66	=66
*ped	*	*	*
(>8E-XL 8EE-X	4.ee-X 4.dd-X 4.b- 4.g 4.e-X	.	.
16DL	.	.	.
16E-	.	.	.
16F	.	.	.
16GJJ	.	.	.
*Xped	*	*	*
16A-XLL	8.ee-L 8.cc-X 8.a-X 8.d	.	.
16B-	.	.	.
16c-X	.	.	.
16B-	16ee-K 16e-	.	.
16A-	8ee-J 8e-	.	.
16F-XJJ)	.	.	.
=67	=67	=67	=67
(>8E-XL 8EE-X	4.ee- 4.dd- 4.b- 4.g 4.e-X^<	.	.
16DL	.	.	.
16E-	.	.	.
16F	.	.	.
16GJJ	.	.	.
16A-XLL	4ee-y 4cc-X 4a-X 4e-	.	.
16B-	.	.	.
16c-X	.	.	.
16B-	.	.	[
16A-	8eee- 8aa- 8ee-	.	.
16E-JJ)	.	.	.
*	*	*v	*v
=68	=68	=68
*ped	*	*
8FF-X	4eee- 4aa- 4ee-	ff
16r	.	.
(>16C-XLL	.	.
16E-X	8r	.
16A-XJJ	.	.
*Xped	*	*
.	.	.
*	*8va	*
16c-XLL	4.eeee-y 4.aaa-y 4.eee-	>
16A-	.	.
16E-	.	.
16C-J	.	.
8e-J	.	]
=69	=69	=69
*ped	*	*
8FF-X)	8ddddnL 8aaa-X 8dddn	.
16r	8cccc-X 8ddd 8ccc-X	]
(>16C-XLL	.	.
16Dn	8bbb-J 8ddd 8bb-	.
16A-XJJ	.	.
16c-XLL	8aaa-L 8ddd 8aa-X	.
16A-	.	.
16D	8ggg-X 8ddd 8gg-X	.
16C-J	.	.
*Xped	*	*
8dnJ)	8fff-XJ 8aa- 8ff-X	.
*	*X8va	*
!!LO:LB:g=original
=70	=70	=70
!	!LO:TX:a:t=loco.	!
*ped	*	*
(<8E-XL 8EE-X	(>4.eee-X 4.gg 4.ee-X	.
!	!LO:TX:i:t=dimin. _:problem:dynamics with extention lines	!
!	!	!LO:HP:i:t=dimin. _:ext=ud
16DDL	.	>
16EE-	.	.
16FF	.	.
16GGJJ	.	.
16AA-XLL	4.ccc-X 4.ee- 4.cc-X	.
16BB-	.	.
16C-X	.	.
16D-X	.	.
16E-	.	.
*Xped	*	*
16F-XJJ)	.	.
=71	=71	=71
*ped	*	*
(<8EE-XL	4.bb- 4.dd-X 4.b-	.
16DDnL	.	.
16EE-	.	.
16FF	.	.
16GGJJ	.	.
16AA-XLL	4.aa-X 4.cc-X 4.a-X	.
16BB-	.	.
16C-X	.	.
16D-X	.	.
16E-y	.	.
*Xped	*	*
16F-XJJ)	.	.
=72	=72	=72
*ped	*	*
(<8EE-XL	4.gg-X 4.b- 4.g-X	.
16DDL	.	.
16EE-	.	.
16FF	.	.
16GGnyJJ	.	.
16AA-XLL	4.aa-X 4.cc-X 4.a-X	.
16BB-	.	.
*Xped	*	*
.	.	.
16C-X	.	.
16D-X	.	.
16E-y	.	.
16F-XJJ)	.	.
=73	=73	=73
*ped	*	*
(<8EE-XL	4.dd-X 4.b- 4.d-X	.
16DDnL	.	.
16EE-	.	.
16FF	.	.
16GGJJ	.	.
16AA-XLL	4.ff-X\ 4.a-X\ 4.f-X\	.
16BB-	.	.
*Xped	*	*
.	.	.
16C-X	.	.
16D-X	.	.
16E-y	.	.
16F-XJJ)	.	.
!!LO:LB:g=original
=74	=74	=74
*ped	*	*
(<8EE-XL	4.ee- 4.g 4.e-X	.
16DDnL	.	.
16EE-	.	.
16FF	.	.
16GGJJ	.	.
16AA-XLL	4.cc-X 4.a-X 4.e-	.
16BB-	.	.
*Xped	*	*
.	.	.
16C-X	.	.
16D-X	.	.
16E-y	.	.
16F-XJJ)	.	.
=75	=75	=75
*ped	*	*
(<8EE-XL	4.b- 4.d-X	.
16DDnL	.	.
16EE-	.	.
16FF	.	.
16GGJJ	.	.
16AA-XLL	4.a- 4.e- 4.c-X	.
16BB-	.	.
*Xped	*	*
16C-X	.	.
16D-X	.	.
16E-y	.	.
16F-XJJ)	.	.
=76	=76	=76
*ped	*	*
(<8EE-XL	4.g- 4.d-X 4.B-	.
16DDnL	.	.
16EE-	.	.
16FF	.	.
16GGnyJJ	.	.
16AA-XLL	4.a-X 4.e-X 4.c-X	.
*Xped	*	*
16BB-	.	.
16C-X	.	.
16D-X	.	.
16E-y	.	.
16F-XJJ)	.	.
=77	=77	=77
*ped	*	*
(<8EE-XL	4.d-X 4.B-	.
16DDnL	.	.
16EE-	.	.
16FF	.	.
16GGJJ	.	.
16AA-X/LL	4.f-X 4.c-X 4.A-X	.
16BB-	.	.
*Xped	*	*
.	.	.
16C-X	.	.
16D-X	.	.
16E-y	.	.
16F-XJJ)	.	.
!!LO:LB:g=original
=78	=78	=78
4EE-X/	4e-X 4B- 4G	.
!	!LO:TX:b:i:t=rallentando.	!
8r	16dnXLL	.
.	16e-JJ	.
(>4.c-X 4.A-X	16f-XLL	.
.	16g-X	.
.	16a-X	.
.	16b-	.
.	16cc-X	.
.	16f-JJ	.
=79	=79	=79
4.B- 4.G	4e-X	.
.	16dLL	.
.	16e-JJ	.
4.c-X 4.A-X	16f-XLL	.
.	16g-X	.
.	16a-X	.
.	16b-	.
.	16cc-X	.
.	16f-JJ	.
=80	=80	=80
4.B- 4.G	4e-X	.
.	16c#XLL	.
.	16dJJ	.
4.A 4.F#X	16e-yLL	.
.	16f#X	.
.	16g	.
.	16g#X	.
.	16a	.
.	16dJJ	.
=81	=81	=81
4.A-X 4.Fn	4d-X	.
.	16BnLL	.
.	16cJJ	.
4G 4E	16dnLL	.
.	16e	.
.	16f	.
.	16f#X	.
8C)	16g	.
.	16B-XJJ)	]]
!!LO:LB:g=original
=82	=82	=82
!	!LO:TX:a:B:t=Tempo primo.	!
4FF	(>4A<)	pp
8c	8cc	.
4c 4F	4cc 4a	.
8c 8F	8cc 8a	.
=83	=83	=83
*	*^	*
4c 4F	8.eeL	4b-	.
.	16ddK	.	.
8c 8F	8ccJ	8ryy	.
4c 4F	4ff\ 4a\	4.rFyy	.
8B-	8dd 8f	.	.
*	*v	*v	*
=84	=84	=84
4A	4cc 4f	.
8A 8C	8a 8e	.
4A 4D	4f 4c	.
8D 8GG	8g 8f 8B-	.
=85	=85	=85
*	*^	*
4C	4.g	4e 4B-	.
8C	.	8d 8B-	.
4F 4FF	4a 4c	4.rFyy	.
8F\ 8BB-\	8b- 8d	.	.
*	*v	*v	*
=86	=86	=86
4F 4C	4a 4c	.
8F 8BB-	8f 8d	.
4F 4C	4a 4c	.
8F 8D	8b- 8B-	.
=87	=87	=87
*	*^	*
4F 4C	8.aL	4c	.
.	16gK	.	.
8F 8BB-	8fJ)	8d	.
4r	4r	4.rcyy	.
8r;	8r;	.	.
*	*v	*v	*
!!LO:PB:g=original
=88	=88	=88
4A 4C	4cc 4e	.
8A 8D	8a 8f	.
4A 4E	4cc 4e	.
8A 8F	8dd 8d	.
=89	=89	=89
*	*^	*
4A 4E	8.ccL	4e	.
.	16bnK	.	.
8A 8D	8aJ	8f	.
4A 4E	4cc 4e	4.rAyy	.
8A 8F	8dd 8d	.	.
=90	=90	=90	=90
4A 4E	8.ccL	4e	.
.	16bnK	.	.
8c 8E	8aJ	8e	.
4E	4.b	4a 4e 4d	>
8E	.	8g#X 8e 8d	]
=91	=91	=91	=91
4AA	4.a	4e 4c	.
8AA	.	(>8e 8c	>
4FF#X	4.cc	4a 4e-X	.
8FF#	.	8e-	]
=92	=92	=92	=92
.	8qcc/	.	.
!	!LO:TX:t=P:arpeggio obejmuje także przednutkę:problem	!	!
8.GGL	8.b-L: 8.g: 8.d:	4.rAyy	.
16AAK	16aK 16f#X 16c	.	.
8BB-J	8gJ 8d	.	.
4C	4.a	4en 4B-	>
8C 8CC	.	8e 8B-	]
!!LO:LB:g=original
=93	=93	=93	=93
*^	*	*	*
4C\ 4FF\	4A/	4.f)	4.ryy	.
8FF\	8A/	.	.	.
4.ryy	4FF#X/	4.cc	(>4a 4e-X	>
.	8FF#/	.	8a 8e-	]
*v	*v	*	*	*
=94	=94	=94	=94
.	8qcc/	.	.
!	!	!LO:TX:t=P:arpeggio obejmuje także przednutkę:problem	!
8.GGL/	8.b-:L 8.g: 8.d:	4.rAyy	.
16AA/	16aK 16f#X 16c	.	.
8BB-J/	8gJ 8d	.	.
4C/	4.a	4e 4B-	.
8C/	.	8e) 8B-	.
=95	=95	=95	=95
*ped	*	*	*
8.CL	(>2.f#X 2.e-X	4.A<	>
16BB-K	.	.	.
8AAJ	.	.	]
4E-X	.	4.c<	.
8E-	.	.	.
*Xped	*	*	*
.	.	.	.
=96	=96	=96	=96
*ped	*	*	*
8.CL	2.f#X 2.e-X	4.A<	>
16BB-K	.	.	.
8AAJ	.	.	]
4E-X	.	4.c<	.
8E-	.	.	.
*Xped	*	*	*
.	.	.	.
=97	=97	=97	=97
*^	*	*	*
*ped	*	*	*	*
8.C\L	4.rAyy	(>[>2.g-X) 2.e-X	4A-X</	]
16BB-K	.	.	.	.
[>8AA-XJ	.	.	8ryy	.
N[<4AA-] B-	4ryy	.	4.c/	.
8B-	8ryy	.	.	.
!!LO:LB:g=original
=98	=98	=98	=98	=98
*Xped	*	*	*	*
4B-\	[<2.AA-N]	4g-X]	4.d-X	.
8A-X\	.	8f	.	>
!	!	!	!	!
4G-X\	.	4b-	4.e-X 4.c	.
8G-\	.	8b-	.	]
=99	=99	=99	=99	=99
4G-X\	N[<2.AA-]	4b-	4.d-X	.
(>8F\	.	8a-X)	.	.
4B-\	.	(>4g-X	4.c	.
8B-\	.	8g-	.	.
*v	*v	*	*	*
=100	=100	=100	=100
4B- 4AA-N]	4g-X	4.d-X	.
8A-\	8f)	.	.
4G-X\	(>4b-	4.e-X 4.c-X	.
8G-\	8b-	.	.
=101	=101	=101	=101
4G-X	4b-	4.c-X 4.dn	.
8F	8a-X)	.	.
*ped	*	*	*
4c-X	4rcc	4.d	.
.	.	.	.
8c-	8rcc	.	.
*	*v	*v	*
=102	=102	=102
8.A-XL	(>4.cc-X 4.f	.
16G-XK	.	.
8FJ	.	.
4c-X	4.a-X 4.dn	.
8c-)	.	.
*Xped	*	*
.	.	.
=103	=103	=103
*^	*	*
4.rgyy	4A-X)	2.cc-X 2.f	.
.	[>8D-X	.	.
4e-X	4.D-_<	.	>
8e-	.	.	]]
!!LO:LB:g=original
=104	=104	=104	=104
*	*	*^	*
4e-X\	2.D-_<	4cc-X	4.g-X	.
(>8d-X\	.	8b-	.	.
4c-X\	.	4ee-X	4.f	.
8c-\	.	8ee-)	.	.
=105	=105	=105	=105	=105
4c-X\	N[<2.D-_<	(>4ee-X	4.g-X	.
8B-\)	.	8dd-y	.	.
(>4e-\	.	4cc-X 4g-X	4.ryy	.
8e-\	.	(>8cc- 8f)	.	.
*v	*v	*	*	*
=106	=106	=106	=106
4e-X\ D-N]	4cc-X	4.g-X	.
8d-\	8b-	.	.
!	!LO:TX:t=cresc. _:problem:dynamics with extention lines	!	!
!	!	!	!LO:HP:i:t=cresc.
4c-X\	(>4ee-X)	4.a-X 4.f	<
8c-\	8ee-	.	.
=107	=107	=107	=107
!	!LO:TX:a:i:t=stretto più mosso.	!	!
4c-X	4ee-X	4.gn 4.en	.
8B-)	8dd-X)	.	[
!	!	!	!LO:DY:rj
4en 4En	4.reeeyy	(>8.ggL 8.cc 8.b# 8.g	f
.	.	16gg#XK 16cc 16g#X	.
8e 8E	.	8aaJ 8cc 8a	.
*	*v	*v	*
=108	=108	=108
!	!LO:TX:t=cresc. _:problem:dynamics with extention lines	!
!	!	!LO:HP:i:t=cresc.
(>8.c#XL 8.C#X]	8.aa#XL 8.gg 8.ee 8.a#X	<
16BnK 16BBn	16bbnK 16gg 16ee 16bn	.
8A#XJ 8AA#X)	8cccnJ 8gg 8ee 8ccn	.
(>4g 4G	8.ccc#XL 8.bb-X 8.ee 8.cc#X	.
.	16dddK 16bb- 16dd	.
8g 8G	8eee-XJ 8bb- 8ee-X	.
!!LO:LB:g=original
=109	=109	=109
*	*8va	*
8.eL 8.E	8.eeenL 8.ccc#X 8.bb- 8.een	.
16dK 16D	16fffK 16bb- 16ff	.
8c#XJ) 8C#X	8fff#XJ 8bb- 8ff#X	.
*clefG2	*	*
8cc#X 8c#X	8.gggL 8.eee 8.bb- 8.gg	.
8r	.	.
.	16ggg#XK 16eee 16gg#X	.
*clefF4	*	*
8G 8GG	8aaaJ 8fff# 8aa	.
=110	=110	=110
8.GL 8.GG	8bbb- 8bb-)	.
*	*X8va	*
.	16r	.
!	!LO:TX:a:t=loco.	!
16FK (<16FF	(>16ffKL 16f	.
8E-XJ 8EE-X	8ee-XJ 8e-X	.
8B- 8BB-)	8bb- 8b-)	.
8r	8r	.
[>8BB- [<8BBB-	(>8ggg 8ddd 8gg	[ff
=111	=111	=111
4BB-] (>4BBB-]	4fff 4ddd 4ff	.
8D 8DD	8ddd 8bb- 8dd	.
4G 4GG	4bb- 4dd 4b-	.
8F 8FF)	8ccc 8ff 8cc)	.
=112	=112	=112
(<8.BB-L 8.BBB-	(>4ddd 4bb- 4ff 4dd	.
16AAK 16AAA	.	.
8GGJ 8GGG	8bb- 8dd 8b-	.
4E-X 4EE-X	4gg 4ee-X 4b- 4g	.
8D) 8DD	8aa 8ff#X 8dd 8a)	.
!!LO:PB:g=original
=113	=113	=113
(<8.GGL 8.GGG	(>4bb- 4gg 4dd 4b-	.
16FFK 16FFF	.	.
8EE-XJ 8EEE-X	8gg 8b- 8g	.
4C 4CC	4ee-X\ 4a-X\ 4e-X\	.
8BB-) 8BBB-	8ff 8dd 8b- 8f	.
=114	=114	=114
*^	*	*
*	*	*	*^
*ped	*	*	*	*
4AAA/)	[<2.AA/	2.ff#X 2.dd#X 2.an 2.f#X)	fz	>
!LO:TX:i:a:t=ritenuto.	!	!	!	!
8Bn\	.	.	p	.
4B\	.	.	.	]
8B\	.	.	.	.
*	*	*	*v	*v
=115	=115	=115	=115
!	!	!LO:TX:a:B:t=Tempo primo.	!
4Bn\	2.AA_<	(>[>2.bn [<2.f#X [<2.d#X	.
8B\	.	.	.
4B\	.	.	.
8B\	.	.	.
*v	*v	*	*
=116	=116	=116
*	*^	*
4.AA/]	4.bnX] 4.f#X]	8.d#XL]	.
*Xped	*	*	*
.	.	16c#XK	.
!	!	!LO:TX:t=P:ligatura od 8Bn do 4.B:problem	!
.	.	&[8BnJ	.
4.GG#X/	4.b 4.e 4.Bn&]	4e	.
.	.	8c#	.
*	*v	*v	*
=117	=117	=117
*^	*	*
4Bn\	2.FF#X	[>2.a 2.d#X 2.Bn	.
8A\	.	.	.
4F#X\	.	.	.
8BBn/	.	.	.
*v	*v	*	*
!!LO:LB:g=original
=118	=118	=118
*	*^	*
[<4.EE/	4a]	2.e 2.Bn	.
.	8g#X	.	.
4EE/]	4.gn	.	.
8FFn/	.	.	.
*	*v	*v	*
=119	=119	=119
*ped	*	*
(>4GG\	2.g 2.f 2.Bn< 2.G<	.
!	!LO:TX:b:i:t=ritenuto.	!
8GG\	.	.
4GG\	.	.
8GG\	.	.
*Xped	*	*
.	.	.
=120	=120	=120
8.BBnL<	4.g 4.f 4.d 4.G<	.
16AAK	.	.
8GGJ	.	.
4C\	4.g 4.e 4.c< 4.G<	.
8AA\	.	.
=121	=121	=121
*ped	*	*
4GG/	2.g 2.e 2.c 2.G<	.
8EE/	.	.
4CC/	.	.
8AAA/	.	.
*Xped	*	*
.	.	.
=122	=122	=122
*^	*	*
!	!	!	!LO:HP:b=2
*ped	*	*	*
!LO:TX:t=P:kończący się łuk powinien być przypięty do 2.GGG:problem	!	!	!
(>(>4.G\)	2.GGG/)	2.f 2.Bn<	>
4A\	.	.	.
8A\	.	.	]]
*Xped	*	*	*
.	.	.	.
=123	=123	=123	=123
*	*	*^	*
*	*	*	*^	*
4A\	[<2.GG	4f)	4.ryy	2c	.
8G\)N	.	8e	.	.	.
!	!	!	!	!	!LO:HP:a=2
(>4F\	.	(>4a	4.d 4.Bn	.	>
.	.	.	.	8	.
8F\	.	8a	.	8	.
*	*	*	*v	*v	*
!!LO:LB:g=original
=124	=124	=124	=124	=124
!	!	!	!	!LO:HP:a
4F\	2.GG]	4a	4.c	.
8E\)	.	8g)	.	]]
!	!	!	!	!LO:HP:b=2
(>\4A	.	(>4f	4.Bn	>
8A\	.	8f	.	.
*v	*v	*	*	*
=125	=125	=125	=125
4A	4f	4.c	.
8G)	8e)	.	]
(>4F	(>4a	4.d 4.BnX	.
8F	8a	.	.
=126	=126	=126	=126
4F	4a	4.d-X 4.B-	.
8E)	8g)	.	.
(>4B-	4rcc	4.d-	.
8B-	8rcc	.	.
*	*v	*v	*
=127	=127	=127
8.GL	(>4.b- 4.e 4.d-X	.
16FK	.	.
8EJ)	.	.
(>4B-	4.g 4.d-	.
8B-	.	.
=128	=128	=128
*^	*	*
4.rgyy	4G)	2.a 2.e	.
.	(>[<8C\	.	.
!	!LO:N:vis=4	!	!
4dn\	4.C_<	.	.
8d\	.	.	.
=129	=129	=129	=129
*	*	*^	*
!	!LO:N:vis=2	!	!	!
4d\	2.C_<	4b-	4.f	.
8c\	.	8a)	.	.
4B-\	.	(>4dd	4.g 4.e	.
8B-\	.	8dd	.	.
!!LO:LB:g=original
=130	=130	=130	=130	=130
4B-\	4.C]	4dd	4.f	.
8A\)	.	8cc)	.	.
4d:\	[<4.C:	(>4b-	4.e	.
8d\	.	8b-	.	.
=131	=131	=131	=131	=131
4d\	4.C]	4b-	4.f	.
8c\	.	8a)	.	.
4B-\	4.rBByy	(>4dd	4.g 4.e	<
8B-\	.	8dd	.	.
=132	=132	=132	=132	=132
*	*	*	*	*^
4B-\	2.ryy	4dd	4.g-X 4.e-X	.	<
*	*	*	*	*v	*v
8A\	.	8cc)	.	[
!	!	!	!LO:TX:a:i:t=stretto più mosso.	!
!	!	!	!	!LO:DY:rj
4e-X\ 4E-X\	.	4.rgggyy	(>8.ff#XL 8.cc 8.a 8.f#X	f
.	.	.	16ggK 16cc 16g-	.
8e-\ 8E-\	.	.	8aa-XJ 8cc 8a-X)	.
*v	*v	*	*	*
*	*v	*v	*
=133	=133	=133
!	!LO:TX:t=cresc. _:problem:dynamics with extention lines	!
!	!	!LO:HP:i:t=cresc. _:ext=ud
8.cL 8.C	(>8.aaL 8.ff#X 8.ee-X 8.a	<
16B-K 16BB-	16bb-K 16ff# 16ee- 16b-	.
8AJ 8AA	8bbnJ 8ff# 8ee- 8bn)	.
4f#X 4F#X	(>8.cccL 8.aa 8.ee- 8.cc	.
.	16ccc#XK 16aa 16cc#X	.
8f# 8F#	8dddJ 8aa 8dd)	.
=134	=134	=134
8.d#XL 8.D#X	(>8.ddd#XL 8.aa 8.ff#X 8.dd#X	.
16c#XK 16C#X	16eeeK 16aa 16ee	.
8cnJ 8Cn	8fffnJ 8aa 8ffn)	.
*clefG2	*	*
8cc 8c	(>8.fff#XL 8.eee-X 8.ccc 8.aa 8.ff#X	.
8r	.	.
.	16gggK 16eee- 16gg	.
*clefF4	*	*
(<8G-X 8GG-X	8aaa-XJ 8eee- 8aa-X)	.
!!LO:LB:g=original
=135	=135	=135
8.G-XL 8.GG-X	8aaan'> 8eee'> 8aan'>	.
.	16r	.
16FK 16FF	(>16ffK 16fL	.
8E-XJ 8EE-X	8ee-XJ) 8e-X	.
8A'> 8AA'>)	8aa'> 8a'>	.
8r	8r	.
8FF#X 8FFF#X	(>8ddd^> 8ccc^> 8aa^> 8dd^>	[ff
=136	=136	=136
(<4GG 4GGG	4ddd 4bb- 4gg 4dd	.
8D 8DD	8bb- 8dd 8b-	.
4G 4GG	4gg 4dd 4b- 4g	.
8F 8FF)	8aa 8dd 8a)	.
=137	=137	=137
(<8.E\L> 8.EE\	(>4bb- 4gg 4dd 4b-	.
16DK 16DD	.	.
8C#XJ 8CC#X	8gg 8ee 8b- 8g	.
4B- 4BB-	4ee\ 4cc#X\ 4g\ 4e\	.
8A 8AA)	8ff#X 8ee-X 8ccn 8f#X)	.
=138	=138	=138
(<8.BB-L 8.BBB-	(>4gg\ 4dd\ 4g\	.
16AAK 16AAA	.	.
8GGJ 8GGG	8ee 8b- 8e	.
4E 4EE	4cc#X 4b- 4g 4c#X	.
8D 8DD)	8dd) 8b- 8g 8d	.
=139	=139	=139
(<4C#X 4CC#X	8dd#X'<L 8a'< 8g'< 8d#X'<	.
.	8ee'<J 8a'< 8g'< 8e'<	.
8Cn 8CCn	8r	.
!LO:TX:i:a:t=accell.:dur=3e:ext=ud:problem:text with extension lines	!	!
8BBnL 8BBBn	4r	.
8BB-X 8BBB-X	.	.
8AAJ 8AAA)	8r	.
!!LO:PB:g=original
=140	=140	=140
*	*	*^
*	*8va	*	*
!	!LO:TX:a:B:t=Presto con fuoco	!	!
!	!	!	!LO:HP:b=2
(<8AAL 8AAA	(16aaaLL 16fff	.	<
.	16eee	.	.
8D 8DD	16ddd	.	.
.	16aa	.	.
*	*X8va	*	*
!	!LO:TX:a:t=loco.	!	!
8EJ 8EE	16aa 16ff	.	.
.	16eeJJ	.	.
4F 4FF)	16ddLL	.	[
.	16a	.	.
.	16a 16f	.	.
.	16e	.	.
8r	16d	.	.
.	16AJJ)	.	.
*	*	*v	*v
=141	=141	=141
(>16GLL	(>16GLL	.
16E	16b- 16c#X	<
16AA	16c#	.
16B-	16cc#X 16e	.
16G	16e	.
16AAJJ	16eeJJ 16g	.
16c#LL	16gLL	.
16G	16gg 16b-	.
16AA	16b-	.
16eJJ)	16bb- 16cc#	.
8r	16cc#	.
.	16ccc#XJJ 16ee)	[
=142	=142	=142
*	*	*^
*	*8va	*	*
!	!	!	!LO:HP:b=2
(<8AAL 8AAA	(>16aaaLL 16fff	>	<
.	16eee	.	.
8D 8DD	16ddd	.	.
.	16aa	.	.
*	*X8va	*	*
!	!LO:TX:a:t=loco.	!	!
8EJ 8EE	16aa 16ff	.	.
.	16eeJJ	.	.
4F 4FF)	16ddLL	]	[
.	16a	.	.
.	16a 16f	.	.
.	16e	.	.
8r	16d	.	.
.	16AJJ)	.	.
*	*	*v	*v
!!LO:LB:g=original
=143	=143	=143
(>16B-LL	(>16c#XLL	.
16G	16cc# 16e	<
16AA	16e	.
16c#X	16ee 16g	.
16G	16g	.
16AAJJ	16ggJJ 16b-	.
16eLL	16b-LL	.
16G	16bb- 16cc#X	.
16AA	16cc#	.
16gJJ)	16ccc#X 16ee	.
8r	16ee	.
.	16eeeJJ 16gg)	[
=144	=144	=144
*	*	*^
*	*8va	*	*
!	!	!	!LO:HP:b=2
(>8AAL 8AAA	(>16ddddLL 16fff	>	<
.	16aaa	.	.
8D 8DD	16fff	.	.
.	16ddd	.	.
8EJ 8EE	16aaa 16ddd	.	.
.	16fffJJ	.	.
8GL 8GG	16dddLL	.	.
.	16aa	.	.
8F 8FF	16fff 16aa	.	.
.	16ddd	.	.
8G#XJ 8GG#X	16aa	]	.
.	16ffJJ	.	.
*	*X8va	*	*
=145	=145	=145	=145
!	!LO:TX:a:t=loco.	!	!
8B-L 8BB-	16dddLL 16ff	.	.
.	16aa	.	.
8A 8AA	16ff	.	.
.	16dd	.	.
8c#XJ 8C#X	16aa 16dd	.	.
.	16ffJJ	.	.
8eL 8E	16ddLL	.	.
.	16a	.	[
8dJ 8D)	16ff 16a	.	.
*	*	*v	*v
.	16dd	.
8r	16a	.
.	16fJJ	.
!!LO:LB:g=original
=146	=146	=146
(<8GG#XL 8GGG#X	16ddLL 16f	<
.	16bn	.
8D 8DD	16f	.
.	16d	.
8EJ 8EE	16b 16d	.
.	16fJJ	.
4F 4FF)	16dLL	[
.	16Bn	.
.	16f^> 16B	.
.	16d	.
8r	16B	.
.	16F<JJ	.
=147	=147	=147
[>4.GG#X [<4.GGG#X	16eLL 16Bn	.
.	16d	.
.	16B	.
.	16E<	.
.	16f^> 16B^>	.
.	16dJJ	.
8GG#L<] 8GGG#]	16Bn<LL	.
.	16E<	.
!	!	!LO:HP:b=2
8C 8CC	16e 16G#X<	>
.	16d	.
8BBnJ 8BBBn	16G#<	]
.	16E<JJ)	.
=148	=148	=148
!	!	!LO:HP:b=2
*	*8va	*
(<8AAL 8AAA	(>16aaaLL 16fff	<
.	16eee	.
8E 8EE	16ccc	.
.	16aa	.
*	*X8va	*
!	!LO:TX:a:t=loco.	!
8BnJ 8BBn	16aa 16ff	.
.	16eeJJ	.
4c 4C)	16ccLL	[
.	16a	.
.	16a 16f	.
.	16e	.
8r	16c	.
.	16AJJ)	.
!!LO:LB:g=original
=149	=149	=149
*ped	*	*
(>16FLL	(16G#XLL	.
16D	16g#X 16Bn	<
16AA	16B	.
16G#	16bn 16d	.
16F	16d	.
16AAJJ	16ddJJ 16f	.
16BnLL	16fLL	.
16F	16ff 16g#X	.
16AA	16g#	.
16dJJ)	16gg#X 16b	.
8r	16b	.
*Xped	*	*
.	16bbnJJ 16dd	[
=150	=150	=150
*	*8va	*
(<8AAL 8AAA	16aaaLL 16fff	.
.	16eee	.
8E 8EE	16ccc	.
.	16aa	.
*	*X8va	*
!	!LO:TX:a:t=loco.	!
8BnJ 8BBn	16aa 16ff	.
.	16eeJJ	.
4c 4C)	16ccLL	.
.	16a	.
.	16a 16f	.
.	16e	.
8r	16c	.
.	16AJJ)	.
=151	=151	=151
*ped	*	*
(>16G#XLL	(>16Bn/LL	<
16F	16bn 16d	.
16AA	16d	.
16Bn	16dd 16f	.
16F	16f	.
16AAJJ	16ffJJ 16g#X	.
16dLL	16g#LL	.
16F	16gg#X 16bn	.
16AA	16b	.
16fJJ)	16bbn 16dd	.
8r	16dd	.
*Xped	*	*
.	16dddJJ 16ff)	[
!!LO:LB:g=original
=152	=152	=152
*	*8va	*
(>8AAL 8AAA	(>16eeeeLL 16aaa	.
!	!	!LO:HP:b=2
.	16cccc	<
8E 8EE	16aaa	.
.	16eee	.
8G#XJ 8GG#X	16cccc 16eee	.
.	16aaaJJ	.
8BnL 8BBn	16eeeLL	.
.	16ccc	.
8A 8AA	16aaa 16ccc	.
.	16eee	.
8BJ 8BB	16ccc	.
.	16aaJJ	.
=153	=153	=153
8dL 8D	16eeeLL 16aa	.
.	16ccc	.
8c 8C	16aa	.
.	16ee	.
8d#XJ 8D#X	16ccc 16ee	.
.	16aaJJ	.
8fL 8F	16eeeLL	.
.	16ccc	.
*	*X8va	*
!	!LO:TX:a:t=loco.	!
8eJ 8E)	16aa 16cc	[
.	16ee	.
8r	16cc	.
.	16aJJ	.
=154	=154	=154
*	*	*^
*ped	*	*	*
2.GG 2.GGG	16eeLL 16a	.	>
.	16cc	.	.
.	16a	.	.
.	16e	.	.
!LO:TX:b:t=cresc. _:problem:dynamics with extention lines	!	!	!
!	!	!LO:HP:i:t=cres	!
!	!	!LO:HP:b=2	!
.	16cc 16e	<	.
.	16aJJ	.	.
.	16eLL	.	]
.	16c	.	.
.	16a 16c	.	.
.	16e	.	.
.	16c	.	.
*Xped	*	*	*
.	16AJJ	[	.
*	*	*v	*v
!!LO:PB:g=original
=155	=155	=155
*ped	*	*
4.FF#X/ 4.FFF#X/	16e<LL 16A<	]
.	16c<	.
.	16A<	.
.	16E<	.
.	16a 16c	.
*Xped	*	*
.	16eJJ	.
*ped	*	*
4.FFn/ 4.FFFn/	16c<LL	.
.	16A<	.
.	16e< 16A<	.
.	16c<	.
.	16A<	.
*Xped	*	*
.	16E<JJ	.
=156	=156	=156
*ped	*	*
4.EE 4.EEE	16eLL 16c	.
.	16f 16Bn	.
!	!LO:TX:i:t=sempre forte	!
.	16e 16c	.
.	16f 16A	.
.	16e 16c	.
.	16fJJ 16B	.
!LO:TX:b:i:t=marcato.	!	!
(>4E 4EE	16eLL 16c	.
.	16f 16A	.
.	16e 16c	.
.	16f 16B	.
8E 8EE	16e 16c	.
*Xped	*	*
.	16fJJ 16A	.
=157	=157	=157
*ped	*	*
8.CL 8.CC	16eLL 16c	.
.	16f 16Bn	.
.	16e 16c	.
16BBnK 16BBBn	16f 16A	.
8AAJ 8AAA	16e 16c	.
.	16fJJ 16B	.
4E 4EE)	16eLL 16c	.
.	16f 16A	.
.	16e 16c	.
.	16f 16B	.
8r	16e 16c	.
.	16fJJ) 16A	.
!!LO:LB:g=original
=158	=158	=158
4.EE^> 4.EEE^>	16d#XLL 16c	.
.	16f#X 16Bn	.
.	16d# 16c	.
.	16f# 16A	.
.	16d# 16c	.
.	16f#JJ 16B	.
4E [<4EE	16d#LL 16c	.
.	16f# 16A	.
.	16d# 16c	.
.	16f# 16B	.
8E 8EE]	16d# 16c	.
*Xped	*	*
.	16f#JJ 16A	.
=159	=159	=159
(<8.CL 8.CC	16d#XLL 16c	.
.	16f#X 16Bn	.
.	16d# 16c	.
16BBnK 16BBBn	16f# 16A	.
8AAJ 8AAA	16d# 16c	.
.	16f#JJ 16B	.
*ped	*	*
4E 4EE)	16d#LL 16c	.
.	16f# 16A	.
.	16d# 16c	.
.	16f# 16B	.
8r	16d# 16c	.
.	16f#JJ 16A	.
=160	=160	=160
4.EE^> 4.EEE^>	16eLL 16c	.
.	16a 16Bn	.
.	16e 16c	.
.	16a 16A	.
.	16e 16c	.
.	16aJJ 16B	.
(<4E 4EE	16eLL 16c	.
.	16a 16A	.
.	16e 16c	.
.	16a 16B	.
8E 8EE	16e 16c	.
.	16aJJ 16A	.
!!LO:LB:g=original
=161	=161	=161
8.EL 8.EE	16eLL 16c	.
.	16a 16Bn	.
.	16e 16c	.
16DK 16DD	16a 16A	.
8CJ) 8CC	16e 16c	.
*Xped	*	*
.	.	.
.	16aJJ 16B	.
*ped	*	*
(<4A/ 4AA/	16eLL 16c	.
.	16a 16A	.
.	16e 16c	.
.	16a 16B	.
8F 8FF	16e 16c	.
.	16aJJ 16A	.
*Xped	*	*
.	.	.
=162	=162	=162
4E 4EE	16eLL 16c	.
.	16a 16Bn	.
.	16e 16c	.
.	16a 16A	.
8C 8CC	16e 16c	.
.	16aJJ 16B	.
4AA 4AAA	16eLL 16c	.
.	16a 16A	.
.	16e 16c	.
.	16a 16B	.
8BBn) 8BBBn	16e 16c	.
.	16aJJ 16A	.
=163	=163	=163
2.C 2.CC	16eLL 16c	>
.	16a 16Bn	.
.	16e 16c	]
.	16a 16A	.
.	16e 16c	.
.	16aJJ 16B	.
.	16eLL 16c	.
.	16a 16A	.
.	16e 16c	.
.	16a 16B	.
.	16e 16c	.
.	16aJJ 16A	.
!!LO:LB:g=original
=164	=164	=164
16qqDD#X/LLL	.	.
16qqEE/JJJ	.	.
*ped	*	*
!LO:TX:t=P:tryl pod pięciolinią:problem	!	!
2.EEtt	16fLL 16d	ff
.	16a 16c	.
.	16f 16d	.
.	16a 16Bn	.
.	16f 16d	.
.	16aJJ 16c	.
.	16fLL 16d	.
.	16a 16B	.
.	16f 16d	.
.	16a 16c	.
.	16f 16d	.
.	16aJJ 16B	.
=165	=165	=165
!LO:TX:t=P:za długi tryl:problem	!	!
2.EEtt	16fLL 16d	.
.	16a 16c	.
.	16f 16d	.
.	16a 16Bn	.
.	16f 16d	.
.	16aJJ 16c	.
.	16fLL 16d	.
.	16a 16B	.
.	16f 16d	.
.	16a 16c	.
.	16f 16d	.
*Xped	*	*
.	16aJJ 16B	.
=166	=166	=166
*^	*	*
*ped	*	*	*
4.Et	4.EEt	2.ryy	<
*Xped	*	*	*
.	.	.	.
*ped	*	*	*
4.DT	4.DDT	.	.
*Xped	*	*	*
.	.	.	.
=167	=167	=167	=167
*ped	*	*	*
4.CT	4.CCT	2.ryy	.
*Xped	*	*	*
.	.	.	.
*ped	*	*	*
!	!LO:TX:a:t=P:nie wyświetla się druga, gruba kreska taktowa:problem	!	!
4.BBnt	4.BBBnt	.	[
*Xped	*	*	*
.	.	.	.
*v	*v	*	*
!!LO:LB:g=original
=|!168	=|!168	=|!168
*k[]	*k[]	*
*ped	*	*
!	!LO:TX:a:B:t=Agitato.	!
8AA'< 8AAA'<	16r	.
.	(<16fLL 16c	.
(>8F\L 8AA\	16f 16c	.
.	16d#X 16A	.
8FJ 8C)	16d# 16A	.
*Xped	*	*
.	16eJJ 16c)	.
*ped	*	*
8FF'< 8FFF'<	16r	.
.	(<16bLL 16d#	.
(>8GL 8BB	16b 16d#	.
.	16g#X 16B	.
8FJ)	16g# 16B	.
*Xped	*	*
.	16aJJ 16d#)	.
=169	=169	=169
*	*^	*
*ped	*	*	*
8E'< 8EE'<	16r	4.ryy	.
.	(>16ffLL 16dd	.	.
8eL 8E	16ff 16dd	.	.
.	16dd#X 16g#X	.	.
8dnJ 8B	16dd# 16g#	.	.
.	16eeJJ 16ddn	.	.
8eL 8E	16eeLL	16ddLL	.
.	16ff	16g#X	.
8d 8B	16ff	16g#	.
.	16dd#X	16ddn	.
8eJ 8E	16dd#X	16ddn	.
*Xped	*	*	*
.	16eeJJ)	16g#JJ	.
*	*v	*v	*
=170	=170	=170
*ped	*	*
8A 8AA	16r	.
.	(>16eeLL 16dd	.
(>8eL 8A	16ee 16dd	.
.	16ff 16cc	.
*Xped	*	*
8dJ 8D)	16ff 16cc	.
.	16ff#XJJ 16cc	.
*ped	*	*
8G 8GG	16ff#LL 16cc	.
.	16gg 16b	.
(>8dL 8G	16gg 16b	.
.	16dd 16b-X	.
8cJ 8C)	16dd 16b-	.
*Xped	*	*
.	16eeJJ 16b-)	.
!!LO:PB:g=original
=171	=171	=171
*	*^	*
*ped	*	*	*
8F 8FF	(>16eeLL 16b-X	4.ryy	.
.	16ff 16a	.	.
(>8cL 8F	16ff 16a	.	.
.	16cc 16a	.	.
8BnJ 8F)	16cc 16a	.	.
*Xped	*	*	*
.	16ddJJ) 16a	.	.
(>8cL 8E	(>16eeLL	8aL	.
.	16cc	.	.
8F#X 8E	16cc	8d#	.
.	16bn	.	.
8G#XJ) 8E	16b	8dnJ	.
.	16eJJ)	.	.
*	*v	*v	*
=172	=172	=172
*ped	*	*
(>8A'L 8AA	16r	.
.	(>16ffLL 16cc	.
8f 8A	16ff 16cc	.
.	16dd#X 16a	.
*Xped	*	*
8eJ 8c)	16dd# 16a	.
.	16eeJJ 16cc)	.
*ped	*	*
(>8F'L 8FF	16r	.
.	(>16bbnLL 16ddn	.
8g 8Bn	16bb 16dd	.
.	16gg#X 16b	.
*Xped	*	*
8fJ)	16gg# 16b	.
.	16aaJJ 16dd)	.
=173	=173	=173
*	*^	*
*	*8va	*	*
*ped	*	*	*
8eL 8E	16rbb	4.ryy	.
.	(>16fffLL 16ddd	.	.
*clefG2	*	*	*
(>8ee 8e	16fff 16ddd	.	.
.	16ddd#X 16gg#X	.	.
8ddnJ 8b	16ddd# 16gg#	.	.
.	16eeeJJ 16dddn	.	.
8eeL 8e	16eeeLL	16dddLL	.
.	16fff	16gg#X	.
8dd 8b	16fff	16gg#	.
.	16ddd#X	16dddn	.
8eeJ 8e)	16ddd#X	16dddn	.
*Xped	*	*	*
.	16eeeJJ)	16gg#JJ	.
*	*v	*v	*
!!LO:LB:g=original
=174	=174	=174
*ped	*	*
8a\L 8A	16r	.
.	16eeeLL 16ddd	.
(>8ee 8a	16eee 16ddd	.
.	16fff 16ccc	.
8ddJ 8d)	16fff 16ccc	.
*Xped	*	*
.	.	.
.	16fff#XJJ 16ccc	.
*ped	*	*
8g\L 8G	16fff#LL 16ccc	.
.	16ggg 16bb	.
(>8dd 8g	16ggg 16bb	.
.	16ddd 16bb-X	.
8ccJ 8c)	16ddd 16bb-	.
*Xped	*	*
.	.	.
.	16eeeJJ 16bb-	.
=175	=175	=175
*	*^	*
*ped	*	*	*
8f 8F	4.rddddyy	16eeeLL 16bb-	.
.	.	16fff 16aa	.
8ccL [<8f	.	16fff 16aa	.
.	.	16ccc 16aa	.
8bJ 8f]	.	16ccc 16aa	.
*Xped	*	*	*
.	.	16dddJJ 16aa	.
8e 8E	(>16eeeLL	8aaL	.
.	16ccc	.	.
8f#XL [<8e	16ccc	8dd#X	.
.	16bb	.	.
8g#XJ 8e]	16bb	8ddnJ	.
.	16eeJJ)	.	.
*	*X8va	*	*
*	*v	*v	*
*clefF4	*	*
=176	=176	=176
*ped	*	*
8AL> 8AA	16r	.
!	!LO:TX:a:t=loco.	!
.	(>16cccLL 16aa	.
*clefG2	*	*
(<8a 8A	16ccc 16gg#X	.
.	16ccc 16ggn	.
8fJ 8c)	16ccc 16ff#X	.
*Xped	*	*
.	16cccJJ 16ffn	.
*ped	*	*
*clefF4	*	*
8G#X/L 8GG#X/	16bbLL 16ff	.
.	16bb 16ee	.
*clefG2	*	*
(<8g#X 8G#X	16bb 16dd#X	.
.	16bb 16ee	.
8eJ 8B)	16bb 16ff	.
*Xped	*	*
.	16bbJJ) 16ee	.
*clefF4	*	*
!!LO:LB:g=original
=177	=177	=177
*ped	*	*
8GnL> 8GGn	(>16eee-XLL 16bb-X	.
.	16bb- 16gg	.
*clefG2	*	*
(<8g 8G	16bb- 16ff#X	.
.	16bb- 16ffn	.
8e-XJ 8B-X)	16bb- 16ee	.
*Xped	*	*
.	16bb-JJ 16ee-X	.
*clefF4	*	*
*ped	*	*
8F#XL< 8FF#X	16aaLL 16ee-	.
.	16aa 16dd	.
(>8f# 8F#	16aa 16cc#X	.
.	16aa 16dd	.
8dJ 8A)	16aa 16ee-	.
*Xped	*	*
.	16aaJJ) 16dd	.
=178	=178	=178
*	*^	*
*ped	*	*	*
(>8FnL 8FFn	(>16ddd-XLL 16aa-X	4.rddddyy	.
.	16aa- 16ff	.	.
8f 8F	16aa- 16ee	.	.
.	16aa- 16ee-X	.	.
8d-XJ) 8A-X	16aa- 16ddn	.	.
*Xped	*	*	*
.	.	.	.
.	[>16aa-JJ 16dd-X	.	.
*ped	*	*	*
(>8EL 8EE	16aa-KL]	8.dd-XL	.
.	8gg	.	.
8e 8E	.	.	.
*Xped	*	*	*
.	.	.	.
.	8gg^	8cc	.
8fJ 8D	.	.	.
.	16gg#X>^>Jk	[<16bJk	.
*	*v	*v	*
=179	=179	=179
8e 8C)	(>16gg#XLL 16b]	.
.	16aaJJ) 16a)	.
*ped	*	*
8DL< 8DD	16r	.
.	(>8b^>L/ 8a^>	.
8BJ 8A 8D	.	.
.	8ff^> 8f^>	.
8DL< 8DD	.	.
.	16ff^>Jk 16f^>	.
8B 8A 8D	16bLL 16a	.
*Xped	*	*
.	16ff 16f	.
8EJ 8EE	16b 16g#X	.
.	16eeJJ 16e)	.
!!LO:LB:g=original
=180	=180	=180
*ped	*	*
8AA' 8AAA	16r	.
.	16ccLL (<16a	.
(>8AL 8AA	16cc 16g#X	.
.	16cc 16gn	.
*Xped	*	*
8FJ 8C)	16cc 16f#X	.
.	16ccJJ 16fn	.
*ped	*	*
8GG#X 8GGG#X	16bLL 16f	.
.	16b 16e	.
(>8G#XL\ 8GG#	16b 16d#X	.
.	16b 16e	.
8EJ 8BB)	16b 16f	.
.	16bJJ 16e)	.
=181	=181	=181
8GGn 8GGGn	16ee-XLL (<16b-X	.
.	16b- 16g	.
(8GL 8GG\	16b- 16f#X	.
.	16b- 16fn	.
*Xped	*	*
8E-XJ 8BB-X)	16b- 16e	.
.	16b-JJ 16e-X	.
*ped	*	*
8FF#X 8FFF#X	16aLL 16e-	.
.	16a 16d	.
(8F#L 8FF#	16a 16c#X	.
.	16a 16d	.
8DJ 8AA)	16a 16e-	.
*Xped	*	*
.	16aJJ 16d)	.
=182	=182	=182
*	*^	*
*ped	*	*	*
8FFn 8FFFn	(>16dd-XLL 16a-X	4.rAyy	.
.	16a- 16f	.	.
(8FL 8FF	16a- 16f	.	.
.	16a- 16e-X	.	.
8D-XJ 8AA-X)	16a- 16dn	.	.
*Xped	*	*	*
.	.	.	.
.	[>16a-JJ [<16d-X	.	.
*ped	*	*	*
8EE' 8EEE	16a-KL]	8.d-XL]	.
.	8g	.	.
(>8EL 8EE	.	.	.
*Xped	*	*	*
.	8g	8c	.
8FJ 8DD	.	.	.
.	16g#XJk	16BJk	.
*	*v	*v	*
!!LO:LB:g=original
=183	=183	=183
8E\ 8CC\	16g#XLL 16B	.
.	16a^>JJ) 16A^>	.
*ped	*	*
8DD/'<) 8DDD'</	16r	.
.	(>8B<L 8A<	.
8BB\ 8DD\	.	.
.	8f 8F<	.
8DD/ 8DDD/	.	.
.	16fJk 16F<	.
8BB\ 8DD\	16B<LL 16A<	.
*Xped	*	*
.	16f 16F<	.
8EE/ 8EEE/	16B< 16G#X<	.
.	16eJJ) 16E<	.
=184	=184	=184
*ped	*	*
8FFL< 8FFF	(>16B<LL 16A<	>
.	16d#XJJ 16D#X<	]
8F 8FF	16bLL 16a	.
*Xped	*	*
!	!LO:TX:t=cresc. _:problem:dynamics with extention lines	!
!	!	!LO:HP:i:t=cresc.
.	16dd#XJJ 16d#X	<
8F#XJ 8FF#X	16ccLL\ 16a-X	.
.	16ee-XJJ 16e-X	.
*ped	*	*
8GL 8GG	16b-LL\ 16g	.
.	16ee- 16e-	.
8GG 8GGG	16b- 16g	.
.	16ee- 16e-	.
8GJ 8GG	16b- 16g	.
*Xped	*	*
.	16dd#JJ 16d#)	.
=185	=185	=185
*ped	*	*
8GGL 8GGG	(>16c#X<LL 16B-<	.
.	16fJJ 16F<	.
8G 8GG	16cc#XLL 16b	.
*Xped	*	*
.	16ffJJ 16f	.
8G#XJ 8GG#X	16ddLL 16b-X	.
.	16ffJJ 16f	.
*ped	*	*
8AL 8AA	16ccnLL 16a	.
.	16ff 16f	.
8AA 8AAA	16cc 16a	.
.	16ff 16f	.
8AJ 8AA	16cc 16a	.
*Xped	*	*
.	16ffJJ 16f)	.
!!LO:PB:g=original
=186	=186	=186
*ped	*	*
8AA 8AAA	(>16d#XLL 16c#X	.
.	16gJJ 16G	.
(>8AL 8AA	16dd#XLL 16cc#X	.
*Xped	*	*
.	16ggJJ 16g	.
8A#XJ 8AA#X	16eeLL 16ccn	.
.	16ggJJ 16g	.
8BL 8BB	16eeLL 16b	.
.	16gg 16g	.
8c 8C	16ff#X 16ee	.
.	16bb-X 16b-X	.
8c#XJ 8C#X	16gg 16ee-X	.
.	16bb-JJ 16b-	.
=187	=187	=187
8dL 8D	16ff#XLL 16dd	.
.	16bbn 16bn	.
8d#X 8c 8A 8D#X	16aa 16ffn	.
.	16ccc 16cc	.
8eJ) 8c 8A 8E	16aa 16ee	.
.	16cccJJ 16cc	.
8fL 8c 8A 8F	16aaLL 16ee-X	.
.	16ccc 16cc	.
8f#X 8B 8A 8F#X	16bb 16aa	.
.	16ddd#X 16dd#X	.
8fnJ 8c 8A 8Fn	16ccc 16aa	.
.	16ddd#JJ 16dd#	[
=188	=188	=188
*	*8va	*
8EEL 8EEE	16ccccLL 16aaa 16fff	ff>
.	16eee	.
8AA 8AAA	16aaa 16fff 16ddd	.
.	16ccc	.
8BBJ 8BBB	16fff 16ddd 16bb	.
.	16aaJJ	.
*	*X8va	*
!	!LO:TX:a:t=loco.	!
8DL 8DD	16dddLL 16bb 16gg	.
.	16ff	.
8F 8FF	16bb 16gg#X 16ee	.
.	16dd	.
8EJ 8EE	16gg# 16ee 16cc	.
.	16bJJ)	]
!!LO:LB:g=original
=189	=189	=189
*	*	*^
*	*8va	*	*
8EEL 8EEE	(>16ccccLL 16aaa 16fff	>	.
.	16eee	.	.
8AA 8AAA	16aaa 16fff 16ddd	.	.
.	16ccc	.	.
8BBJ 8BBB	16fff 16ddd 16bb	.	.
.	16aaJJ	.	.
*	*X8va	*	*
!	!LO:TX:a:t=loco.	!	!
8DL 8DD	16dddLL 16bb 16gg	.	.
.	16ff	.	.
!	!	!	!LO:HP:b=2
8F 8FF	16bb 16gg#X 16ee	.	>
.	16dd	.	.
8EJ 8EE	16gg# 16ee 16cc	.	]
.	16bJJ)	]	.
*	*	*v	*v
=190	=190	=190
*ped	*	*
8D#XL 8DD#X	(>16bLL	]
.	16bb 16aa 16ff#X	.
*	*8va	*
8f#XJ 8B 8A	16bb	.
.	16bbb 16aaa 16fff#X	.
*Xped	*	*
8r	16bb	.
.	16bbJJ 16aa 16ff#X)	.
*ped	*	*
8D#L 8DD#	(>16ccLL	.
.	16ccc 16aa 16ff#	.
8f#J 8c 8A	16ccc	.
.	16cccc 16aaa 16fff#	.
8r	16ccc	.
*Xped	*	*
.	.	.
.	16cccJJ 16aa 16ff#)	.
=191	=191	=191
*ped	*	*
8EL 8EE	(>16ccLL<	.
.	16ccc 16aa 16ee	.
*clefG2	*	*
8aJ 8e 8c	16ccc	.
.	16cccc 16aaa 16eee	.
*Xped	*	*
.	.	.
8r	16ccc	.
.	16cccJJ 16aa 16ee)	.
*clefF4	*	*
*ped	*	*
8EL 8EE	(>16bLL<	.
.	16bb 16gg#X 16ee	.
*clefG2	*	*
8g#XJ 8e 8B	16bb	.
.	16bbb 16ggg#X 16eee	.
*Xped	*	*
8r	16bb	.
.	16bbJJ 16gg# 16ee)	.
*clefF4	*	*
!!LO:LB:g=original
=192	=192	=192
(<8AAL 8AAA	(>16eeeeLL 16cccc 16aaa	>
.	16gggn	.
8C 8CC	16cccc 16aaa 16fff	.
.	16eee	.
8DJ) 8DD	16aaa 16fff 16ddd	.
.	16cccJJ	.
8FL 8FF	16fffLL< 16ddd 16bb	.
.	16aa	.
*	*	*^
!	!	!	!LO:HP:b=2
8f 8F	16ddd 16bb 16gg	.	>
.	16ff	]	.
8eJ 8E	16bb 16gg#X 16ee	.	]
*	*	*v	*v
.	16ddJJ)	.
=193	=193	=193
(<8AAL 8AAA	(>16eeeeLL 16cccc 16aaa	>
.	16gggn	.
8C 8CC	16cccc 16aaa 16fff	.
.	16eee	.
8DJ) 8DD	16aaa 16fff 16ddd	.
.	16cccJJ	.
(>8FL 8FF	16fffLL< 16ddd 16bb	.
.	16aa	.
8f 8F	16ddd 16bb 16gg	.
.	16ff	]
8eJ) 8E	16bb 16gg#X 16ee	.
.	16bJJ)	.
=194	=194	=194
*	*	*^
*ped	*	*	*
!	!LO:TX:t=cresc. _:problem:dynamics with extention lines	!	!
!	!	!LO:HP:i:t=cresc.	!
8D#XL 8DD#X	(>16bLL<	<	.
.	16bb 16aa 16ff#X	.	.
8f#X^<J 8B 8A 8D#	16bb	.	.
.	16bbb 16aaa 16fff#X	.	.
*Xped	*	*	*
8r	16bb	.	.
.	16bbJJ 16aa 16ff#)	.	.
*ped	*	*	*
8D#L 8DD#	(>16ccLL	.	.
.	16ccc 16aa 16ff#	.	.
8f#^<J 8c 8A 8D#	16ccc	.	.
.	16cccc 16aaa 16fff#	.	.
*Xped	*	*	*
8r	16ccc	.	.
.	16cccJJ 16aa 16ff#)	[[	.
!!LO:LB:g=original
=195	=195	=195	=195
*ped	*	*	*
8EL 8EE	(>16cc#XLL	.	.
.	16ccc#X 16bb-X 16gg	.	.
*clefG2	*	*	*
8gJ^ 8c#X 8B-X	16ccc#	.	.
.	16cccc#X 16bbb- 16ggg	.	.
*Xped	*	*	*
.	.	.	.
8r	16ccc#	.	.
.	16ccc#JJ 16bb- 16gg)	.	.
*clefF4	*	*	*
*ped	*	*	*
8FL 8FF	(>16ddLL	.	.
.	16ddd 16bb- 16aa-X	.	.
*clefG2	*	*	*
8a-XJ^ 8d 8B-	16ddd	.	.
.	16dddd 16bbb- 16aaa-	.	.
*Xped	*	*	*
8r	16ddd	.	.
.	16dddJJ 16bb- 16aa-)	.	.
*	*	*v	*v
*clefF4	*	*
=196	=196	=196
.	16qqdd#X/LL	.
.	16qqddd#X/ 16qqbbn 16qqaa	.
.	[<16qqddd#/JJ	.
*ped	*	*
8a: 8d#X: 8B: 8A: 8F:	8dddd#X 8ddd#y)]	fz
*	*X8va	*
8r	8r	.
!	!LO:TX:a:t=loco.	!
!	!LO:TX:a:B:t=Tempo Primo.	!
8A	(>8a	pp
4A	4a	.
8A	8a	.
=197	=197	=197
4A	4a	.
8A	8a	.
4A	4a	.
8A	8a	.
*Xped	*	*
=198	=198	=198
4A 4E	4cc 4e	.
8A 8D	8a 8f	.
4A 4E	4cc 4e	.
8A 8F	8dd 8d	.
!!LO:LB:g=original
=199	=199	=199
*	*^	*
4A 4E	8.ccL	4e	.
.	16bK	.	.
8A 8D	8aJ	8f	.
4A 4E	4cc 4e	4.rAyy	.
8A 8F	8dd 8d	.	.
*	*v	*v	*
=200	=200	=200
4c 4E	4ee 4a 4e)	.
8r	8r	.
4r	4r	.
8r	8r	.
=201	=201	=201
4r	4r	.
8r	8r	.
4.B 4.E	(>4.g#X 4.e 4.d	.
=202	=202	=202
.	[8qG#<	.
!	!LO:TX:t=P:złe wyświetlanie przednutki:problem	!
2.EE\ 2.EEE\	2.b 2.g# 2.e 2.d 2.G#X<]	>
=203	=203	=203
!	!LO:TX:b:t=P:arpeggio przez cały system:problem	!
4E:\ 4AA: 4AAA:\	4a:) 4e: 4c:	]]
8r	8r	.
!LO:TX:b:B:i:t=FINE.	!	!
4r	4r	.
8r	8r	.
==	==	==
*-	*-	*-
!!title: @{OTL}; @{OPS} @{ONM} publisher: @{PPR}
!!!RDF**kern: > = above
!!!RDF**kern: < = below
!!!RDF**kern: N = linked
!!!RDF**dynam: > = "dim."
!!!RDF**dynam: < = "cresc."
!!!ENC: Leszek Kubiak
!!!END: 2019-01-29
!!!EED: Emilia Ziętek
!!!EST: 2019-01-31
!!!EED2: Antoni Szymański
!!!EST2: 2020-01-14
!!!rism-genre: Ballade
!!!rism-key: F major
!!!rism-opus: op.  38
!!!rism-title: Ballade in F major op.  38
!!!rism-permalink: https://opac.rism.info/search?id=1001006241&View=rism
